X: 1326
T: Charlie Batchelor's Varsovienna
B: australian traditional tunes wiki
M:3/4
L:1/8
R: Varsovienne
Q: 1/4=100
K:D
V:1 
|:A>G|"D"F2F2F2|F4(3FGF|"G"D2G2G2|B4 (3BcB|"A"A2c2c2|c4 (3cdc|"D"A2d2d2|1"D"d4:|2"D"d4||
|:(3efg|"D"a2a2a>g|f2f2f>e|d2d>c d>f|"A"e4e>f|g2g2g>f|e2e2d2|1"A7"c2B2e>g|"D"f4:|2"A7"c2B2A2|"D"d2z2||
% abcbook-tune_id 6342d53a64397e0b51aa4fb5


% abcbook-boost 0
% abcbook-tablature 
% abcbook-transpose 
% abcbook-lastupdated 1665324359258
% abcbook-soundfonts 
% abcbook-repeats 1
% NFF Book 2013

